X:1
T:Hübeli-Juiz  Bb  ABACC
T:Ruth Rymann (1.2.1962)
T:Dirigenten-Notiz  Edi Gasser
C:Unterwalden (CH)
%%partsbox
P:ABACC
M:3/4
R:Naturjodel
L:1/4
K:Bb 
[P:A] "_F,"F | B,>F E/D/ | B2d | f>e c/A/ | F2d | f>e c/A/ | F>e d/c/ | d>B G/D/ | 
F2"_F,"F | B,>F E/D/ | B2d | f>e c/A/ | F2d | f>e c/A/ | F> !fermata!e  !fermata!d/ !fermata!c/ | (B3 | B)z || 
M:3/4
[P:B] G| G>Be | g>fe | d>B B/d/ | F2d | e>A A/c/ | F2e | d>B B/d/ | 
F2F | G>Be | g>fe | d>B B/d/ | F2d | e>A A/c/ | F>  !fermata!e  !fermata!d/ !fermata!c/ | (B3 | B)z ||
L:1/8
M:3/4
[P:C] GF| d2dB GF | d2dB GF | e2eA GE | F4GF | e2eA GE | 
F4GF | d2dB GD | F4GF | d2dB GF | d2dB GF | 
e2eA GE | F4GF | e2eA GE | F3 !fermata!e  !fermata!d !fermata!c | (B6 | B2)z2 |]
W:
W:Reihenfolge: A - B - A - CC
W:
W:notiert Edi Gasser
W:UJV-Naturjodelsammlung: Code-Nr: 35-01
W:http://www.naturjodler.ch/code 35.htm  (with AUDIO)
%Juni 1, 2018

